X:62
T:La Russe
R:Reel
O:England
M:4/4
K:G
P:A
G2BB B2dd|d2gg g2fg|a2g2 e2c2|e2d2 dcBA|\
G2BB B2dd|d2gg g2fg|e2d2 d2F2|A2G2 G4::
P:B
K:D
A2dd d2cB|A2a2 a2f2|g2f2 g2e2|fgag f2d2|\
A2dd d2cB|A2a2 a2f2|g2f2 g2e2\
|1 d4d4:|2 d2=c2B2A2 ||
